{ "compressionlevel":-1,
 "height":8,
 "infinite":false,
 "layers":[
        {
         "data":[73, 73, 73, 73, 73, 73, 73, 73, 73, 73, 73, 73, 73, 73,
            73, 73, 73, 73, 73, 73, 73, 73, 73, 73, 73, 73, 73, 73,
            73, 73, 73, 73, 73, 73, 73, 73, 73, 73, 73, 73, 73, 73,
            73, 73, 73, 73, 73, 73, 73, 73, 73, 73, 73, 73, 73, 73,
            73, 73, 73, 73, 73, 73, 73, 73, 73, 73, 73, 73, 73, 73,
            73, 73, 73, 73, 73, 73, 73, 73, 73, 73, 73, 73, 73, 73,
            73, 73, 73, 73, 73, 73, 73, 73, 73, 73, 73, 73, 73, 73,
            73, 73, 73, 73, 73, 73, 73, 73, 73, 73, 73, 73, 73, 73],
         "height":8,
         "id":2,
         "locked":true,
         "name":"Water",
         "opacity":1,
         "type":"tilelayer",
         "visible":true,
         "width":14,
         "x":0,
         "y":0
        }, 
        {
         "data":[27, 27, 27, 27, 27, 27, 27, 27, 28, 0, 0, 0, 0, 0,
            43, 59, 27, 27, 27, 27, 0, 27, 28, 0, 0, 0, 0, 0,
            0, 26, 27, 27, 27, 27, 58, 43, 44, 0, 0, 0, 0, 0,
            0, 26, 27, 27, 27, 27, 28, 0, 0, 0, 0, 0, 0, 0,
            0, 42, 43, 43, 43, 43, 44, 0, 0, 10, 11, 11, 11, 11,
            0, 0, 0, 10, 11, 11, 11, 11, 11, 75, 27, 27, 27, 27,
            0, 0, 0, 26, 27, 27, 27, 27, 27, 27, 27, 27, 27, 27,
            0, 0, 0, 26, 27, 27, 27, 27, 27, 27, 27, 27, 27, 27],
         "height":8,
         "id":3,
         "locked":true,
         "name":"Edge",
         "opacity":1,
         "type":"tilelayer",
         "visible":true,
         "width":14,
         "x":0,
         "y":0
        }, 
        {
         "data":[3758096422, 2684354585, 37, 23, 40, 23, 40, 41, 0, 0, 0, 0, 0, 0,
            0, 0, 22, 23, 23, 36, 2684354601, 57, 0, 0, 0, 0, 0, 0,
            0, 0, 22, 40, 40, 41, 0, 0, 0, 0, 0, 0, 0, 0,
            0, 0, 54, 55, 56, 57, 0, 0, 0, 0, 0, 0, 0, 0,
            0, 0, 0, 0, 0, 0, 0, 0, 0, 0, 0, 0, 0, 0,
            0, 0, 0, 0, 0, 0, 0, 0, 0, 0, 6, 7, 8, 9,
            0, 0, 0, 0, 6, 7, 7, 3221225554, 9, 0, 22, 23, 24, 25,
            0, 0, 0, 0, 22, 23, 23, 24, 52, 7, 53, 39, 40, 41],
         "height":8,
         "id":4,
         "locked":true,
         "name":"Islands",
         "opacity":1,
         "type":"tilelayer",
         "visible":true,
         "width":14,
         "x":0,
         "y":0
        }, 
        {
         "data":[51, 3221225550, 48, 78, 0, 31, 70, 0, 0, 0, 0, 0, 0, 0,
            0, 0, 0, 93, 76, 94, 0, 0, 0, 0, 0, 0, 0, 0,
            0, 0, 71, 88, 0, 66, 0, 0, 0, 0, 0, 0, 0, 0,
            0, 0, 0, 72, 0, 0, 0, 0, 0, 0, 0, 0, 0, 0,
            0, 0, 0, 0, 0, 0, 0, 0, 0, 0, 0, 0, 0, 0,
            0, 0, 0, 0, 0, 0, 0, 0, 0, 0, 0, 0, 0, 0,
            0, 0, 0, 0, 0, 0, 0, 0, 0, 0, 0, 88, 0, 1610612820,
            0, 0, 0, 0, 0, 0, 0, 0, 0, 67, 0, 71, 0, 0],
         "height":8,
         "id":5,
         "locked":true,
         "name":"Props",
         "opacity":1,
         "type":"tilelayer",
         "visible":true,
         "width":14,
         "x":0,
         "y":0
        }],
 "nextlayerid":6,
 "nextobjectid":1,
 "orientation":"orthogonal",
 "renderorder":"right-down",
 "tiledversion":"1.12.2",
 "tileheight":64,
 "tilesets":[
        {
         "columns":16,
         "firstgid":1,
         "image":"assets\/tilesheet\/tiles_sheet.png",
         "imageheight":384,
         "imagewidth":1024,
         "margin":0,
         "name":"tiles_sheet",
         "spacing":0,
         "tilecount":96,
         "tileheight":64,
         "tilewidth":64
        }],
 "tilewidth":64,
 "type":"map",
 "version":"1.10",
 "width":14
}